openmetadata-ui/src/main/resources/ui/src/assets/svg/error.svg

<svg width="16" height="16" viewBox="0 0 16 16" fill="none" xmlns="http://www.w3.org/2000/svg">
<g clip-path="url(#clip0_11354_12245)">
<path d="M7.99993 9.9989C7.72381 9.9989 7.5 9.77505 7.5 9.49897V5.99944C7.5 5.72336 7.72381 5.49951 7.99993 5.49951C8.27605 5.49951 8.49986 5.72336 8.49986 5.99944V9.49897C8.49986 9.77508 8.27605 9.9989 7.99993 9.9989Z" fill="#6B7280"/>
<path d="M15.7884 12.5088L9.56452 2.13584C8.85837 0.958466 7.14311 0.956185 6.43558 2.13584L0.21171 12.5088C-0.376866 13.4898 0.331256 14.7482 1.47966 14.7482H14.5204C15.669 14.7482 16.3768 13.4896 15.7884 12.5088V12.5088ZM14.5204 13.7483H1.47969C1.10718 13.7483 0.878774 13.3399 1.06912 13.0231L7.29296 2.65014C7.61226 2.11793 8.38744 2.11731 8.70714 2.65014L14.931 13.0231C15.1211 13.3396 14.8932 13.7483 14.5204 13.7483Z" fill="#6B7280"/>
<path d="M7.9999 11.9986C8.41405 11.9986 8.74979 11.6628 8.74979 11.2487C8.74979 10.8345 8.41405 10.4988 7.9999 10.4988C7.58574 10.4988 7.25 10.8345 7.25 11.2487C7.25 11.6628 7.58574 11.9986 7.9999 11.9986Z" fill="#6B7280"/>
</g>
<defs>
<clipPath id="clip0_11354_12245">
<rect width="16" height="16" fill="white"/>
</clipPath>
</defs>
</svg>

<svg xmlns="http://www.w3.org/2000/svg" width="16" height="16" fill="none"><g fill="#6B7280" clip-path="url(#a)"><path d="M8 9.999a.5.5 0 0 1-.5-.5v-3.5a.5.5 0 0 1 1 0v3.5a.5.5 0 0 1-.5.5Z"/><path d="M15.788 12.509 9.565 2.136c-.707-1.178-2.422-1.18-3.13 0L.213 12.509c-.589.98.12 2.24 1.268 2.24h13.04c1.149 0 1.857-1.26 1.268-2.24Zm-1.268 1.24H1.48a.48.48 0 0 1-.41-.726L7.292 2.65a.826.826 0 0 1 1.414 0l6.224 10.373a.48.48 0 0 1-.41.725Z"/><path d="M8 11.999a.75.75 0 1 0 0-1.5.75.75 0 0 0 0 1.5Z"/></g><defs><clipPath id="a"><path fill="#fff" d="M0 0h16v16H0z"/></clipPath></defs></svg>
